X: 30424
T: Old Torn Petticoat, The
R: hornpipe
M: 4/4
K: Adorian
|:A>B|(3cBA B>c A>GE>D|G>DB>G D>G (3Bcd|c2 B>c A>GE>F|G>A (3BAG A2 (3GAB|
c>AB>G A>GE>D|(3GAG B>G D>GB>d|(3cBA (3BAG A>GE>D|G>A (3BA^G A2:|
|:(3GAB|c>de>f g>ed>g|a>ge>d c>A^G>A|(3Bcd e>f g>fe>d|e>aa>^g a2 =g>a|
b>a (3gab a>g e2|g>d (3efg d>B G2|c>AB>^G A>E (3EEE|G>AB>^G A2:|

